X: 021907
T: Brian the Brave
T: Poll Ha'penny
S: "Roche Collection of Traditional Irish Music" [II/11/212]
L: 1/8
M: 4/4
R: hornpipe
K: Am
cd | ed (3cAG A2 Bc | dcA^F G2 cd | edcA dcAG | A2 AA A2 de |
f2 fd e2 ec | dcde g2 eg | aged cAdc | A2 AA A2 :|
ef | gfga g2 fe | gede g2 ed | eaab aged | eaab a2 ag |
f2 gf e2 fe | dcde g2 eg | aged cAdc | A2 AA A2 :|
